X:65
T:Le M\'ecanicien
C:Richard Forest
Z:robin.beech@mcgill.ca
M:4/4
L:1/8
K:D
d3d dcde | f2d2 A2F2 | E3E EDEF | E2cB A2B2 | c3c cBcd | c2A2 B2c2 | d3d dcde | f2e2 d2c2 |
d3d dcde | f2d2 A2F2 | E3E EDEF | E2cB A2B2 | c3c cBcd | c2A2 B2c2 | d2cB AGFE |1 D4-DABc :|2 D8 |:
F2Bd fedB F2Bd fedB | G2Bd gfed | G2Bd gfed | c2eg bage c2eg bage | d3d dcde | f2e2 d2c2 |
F2Bd fedB F2Bd fedB | G2Bd gfed | G2Bd gfed | c2eg bage c2eg bage | d3d dcde | f2e2 d2c2 |]

